projects/ccf-eui/src/assets/icons/organ-icons/organ-icon-ureter-left.svg

<svg width="64" height="64" viewBox="0 0 64 64" fill="currentColor" xmlns="http://www.w3.org/2000/svg">
<path d="M52.3307 4.88534C49.6044 6.3046 47.2683 8.37154 45.5275 10.9046C43.7867 13.4377 42.6945 16.3595 42.3467 19.4133C41.9423 23.253 40.5616 26.9251 38.3361 30.08C37.9094 30.6133 37.4614 31.104 36.9921 31.5947L35.9894 32.5973L35.0081 33.5573C34.1232 34.3116 32.9918 34.7141 31.8294 34.688C29.0267 33.1725 25.8848 32.3943 22.6987 32.4267C19.5461 32.3722 16.4296 33.1054 13.6321 34.56C12.9782 34.6114 12.3208 34.524 11.7031 34.3034C11.0854 34.0828 10.5214 33.734 10.0481 33.28L6.65605 29.8667L4.73605 31.7867L3.90405 32.64L7.31739 36.0747C8.10475 36.9371 8.53884 38.0642 8.53339 39.232C7.74747 40.646 7.30191 42.2238 7.23205 43.84C7.23205 48.4907 10.9441 52.48 16.2774 54.272C16.9216 54.4848 17.5767 54.6629 18.2401 54.8053C18.9863 55.4118 19.5894 56.1757 20.0061 57.0424C20.4229 57.909 20.643 58.8571 20.6507 59.8187H24.5547C24.5685 58.8768 24.7852 57.949 25.1902 57.0986C25.5952 56.2481 26.1789 55.495 26.9014 54.8907C33.3014 53.504 37.9734 49.088 37.9734 43.8827C37.9621 42.2085 37.4897 40.5699 36.6081 39.1467C36.6455 38.5107 36.8048 37.8878 37.0774 37.312C38.607 36.0014 40.0334 34.5749 41.3441 33.0453C43.6576 30.2045 45.2463 26.8442 45.9734 23.2533C46.3984 19.9899 47.4487 16.8391 49.0667 13.9733C50.2117 11.6036 52.1202 9.68764 54.4854 8.53334C54.9005 8.21655 55.185 7.75852 55.285 7.24602C55.385 6.73352 55.2935 6.20215 55.028 5.75255C54.7624 5.30296 54.3412 4.96637 53.8441 4.80654C53.347 4.64671 52.8085 4.67475 52.3307 4.88534Z" />
</svg>

<svg xmlns="http://www.w3.org/2000/svg" width="64" height="64" fill="currentColor" viewBox="0 0 64 64"><path d="M52.33 4.885a18.77 18.77 0 0 0-9.983 14.528 22.6 22.6 0 0 1-4.01 10.667 23 23 0 0 1-1.345 1.515l-1.003 1.002-.98.96a4.74 4.74 0 0 1-3.18 1.131 18.8 18.8 0 0 0-9.13-2.261 18.94 18.94 0 0 0-9.067 2.133 4.65 4.65 0 0 1-3.584-1.28l-3.392-3.413-1.92 1.92-.832.853 3.413 3.435a4.65 4.65 0 0 1 1.216 3.157 10.4 10.4 0 0 0-1.3 4.608c0 4.65 3.711 8.64 9.044 10.432q.968.319 1.963.533a6.53 6.53 0 0 1 2.41 5.014h3.905A6.55 6.55 0 0 1 26.9 54.89c6.4-1.387 11.072-5.803 11.072-11.008a9.1 9.1 0 0 0-1.365-4.736 5 5 0 0 1 .47-1.835 39 39 0 0 0 4.266-4.267 22.6 22.6 0 0 0 4.63-9.792 25.6 25.6 0 0 1 3.093-9.28 11.73 11.73 0 0 1 5.418-5.44 2.133 2.133 0 0 0-2.154-3.648"/></svg>
